X: 1
T: It's Beginning to Look a Lot Like Christmas [Ab]
C: words & music: Meredith Wilson
R: song
Z: 2019 John Chambers <jc:trillian.mit.edu>
M: C
L: 1/8
K: Ab
%%continueall
C>D [|\
"Ab"(3EFE =D>E "Db"F2 A2 | "Ab"c2 E6 | c3 c "C7"B3 A |
"Db"F4 "F"z2 F>G | "Bbm"(3ABA F>^F "Eb7"G4 | (3GAG E>=E "Ab"F2 "Bb7"z^F |
"Eb"G>A "Edim"B>c "Bb7"B>A G>F | "Bbm7"B4 "Eb7"z2 C>D | "Ab"(3EFE =D>E "Db"F2 A2 |
"Ab"c2 E6 | c3 c "C7"B3 A | "Db"F4 "F7"z2 F>G |
"Bbm7"(3ABA "Bbdim7"G>A G2 F>_F | "Ab"E>=F "/Gb"A>c e2 =E>F | "Bbm"d4 "Eb7"G4 |
[1 "Ab"A4  !fine!z>G A>B |] "C7"(3cdc (3BcB (3ABA (3GAB |
"Fm"c>c "C7"(3BAG "Fm"F2 z2 | "Bb7"(3BcB (3ABA (3GAG (3FGA | "Eb"B>B "Bb7"(3AGF "Eb"E2 zE |
"Eb7"e>d _d>c B>A G>F | E>=D "Ebdim7"E>F "Eb7"E2 "d.C."y|]
